X: 1
T: Jos sais kerran reissullansa
O: Trad Finland
Z: John Chambers <jc@trillian.mit.edu>
M: 2/4
L: 1/16
K: D
|: "D"D2F2 A2D2 | "A7"D2C2 C2C2 | A,2CC E2G2 | "D"F2D2 D4 :: "D"A2FA "G"d2c2 | "D"B2A2 F2D2 | "Em"F2EF "A7"G2C2 | "D"E2D2 D4 :|
K: A
|: "A"A2c2 e2A2 | "E7"A2G2 G2G2 | E2GG B2d2 | "A"c2A2 A4 :: "A"e2ce "D"a2g2 | "A"f2e2 c2A2 | "Bm"c2Bc "E7"d2G2 | "A"B2A2 A4 :|
